!!!COM: Alban (Maria Johannes) Berg
!!!OTL: [T450_Ber-w13p33-34m45-61]
**kern	**dynam	**kern	**dynam	**kern	**dynam	**kern	**dynam
*grp:A	*grp:A	*grp:B	*grp:B	*grp:B	*grp:B	*grp:A	*grp:A
*part4	*part4	*part3	*part3	*part2	*part2	*part1	*part1
*staff4	*	*staff3	*	*staff2	*	*staff1	*
*I"Violoncello	*	*I"Viola	*	*I"Violin II	*	*I"Violin I	*
*I'Vc.	*	*I'Vla.	*	*I'Vln. II	*	*I'Vln. I	*
!!pagebreak:original
*clefF4	*	*clefC3	*	*clefG2	*	*clefG2	*
*k[]	*	*k[]	*	*k[]	*	*k[]	*
*C:	*	*C:	*	*C:	*	*C:	*
*M3/4	*	*M3/4	*	*M3/4	*	*M3/4	*
=1	=1	=1	=1	=1	=1	=1	=1
!LO:TX:t=P:problem:Hanging slur not implemented yet	!LO:DY:ed=brack	!	!LO:DY:ed=brack	!LO:TX:t=P:problem:Hanging slur not implemented yet	!LO:DY:ed=brack	!LO:TX:t=[quarter]=150	!
!	!	!LO:TX:t=P:problem:Hanging slur not implemented yet	!	!	!	!	!
16AAnLL	pp <	16d-XLL	pp <	16a-XLL)	pp < [	4%3r	.
16FFn	[ >	16e-XJJ)	.	(16f#X	>	.	.
16BBn)	.	(16enLL	[	16gn	.	.	.
(16AAnJJ	.	16cnJ	>	16a-XJJ)	.	.	.
16BB-XLL	.	16dnL	.	(16f#XLL	.	.	.
16FFn	.	16d-X	.	16gn	.	.	.
16BBnJJ)	.	16e-XJJ)	.	16a-XJJ)	.	.	.
16r	]	16r	]	16r	]	.	.
8r	.	4r	.	4r	.	.	.
!LO:TX:a:t=col legno(gestrichen)	!	!	!	!	!	!	!
(16D#XLL	pp	.	.	.	.	.	.
16EnJ	.	.	.	.	.	.	.
=2	=2	=2	=2	=2	=2	=2	=2
*M9/16	*	*M9/16	*	*M9/16	*	*M9/16	*
16G#XL	.	16r	.	8.r	.	16%9r	.
16Dn	.	16r	.	.	.	.	.
!	!	!LO:TX:a:t=col legno(gestrich.)	!	!	!	!	!
!	!	!LO:TX:t=P:problem:Cross-measure beaming not implemwnted yet	!	!	!	!	!
16C#XJ	.	(16B-XKL	pp	.	.	.	.
16F#XL	.	16AnL	.	16r	.	.	.
16Cn	.	16Fn	.	16r	.	.	.
!	!	!	!	!LO:TX:a:t=col legno(gestrich.)	!	!	!
!	!	!	!	!LO:TX:t=P:problem:Cross-measure beaming not implemwnted yet	!	!	!
16GnJ	.	16BnJ	.	(16a-XKL	pp	.	.
16FnL	.	16cnL	.	16gnL	.	.	.
16BBn	.	16Gn	.	16e-X	.	.	.
16BB-XJ	.	16d-XJ	.	16anJ	.	.	.
!!linebreak:original
=3	=3	=3	=3	=3	=3	=3	=3
!LO:TX:t=P:problem:Cross-measure beaming not implemwnted yet	!	!	!	!	!	!LO:TX:a:t=col legno(gestrich.)	!
16AAnJk)	.	16G-XL	.	16b-XL	.	(16ffnLL	pp
!!)
!	!LO:DY:t=%s !!!	!	!	!	!	!	!
!LO:TX:a:t=(geschlagen)	!LO:DY:ed=paren	!	!	!	!	!	!
16DD#X`LL	ppp	16A-X	.	16fn	.	16een	.
16EEn`J	.	16dnJ	.	16bnJ	.	16ccnJ	.
16GG#X`L	.	16e-XL	.	16enL	.	16ff#XL	.
16DDn`	.	16enJJ)	.	16f#X	.	16ggn	.
!	!	!LO:TX:a:t=(geschlagen)	!	!	!	!	!
!	!	!	!LO:DY:ed=paren	!	!	!	!
16CC#X`J	.	16B-X`KL	pp	16ccnJ	.	16ddnJ	.
16FF#X`L	.	16An`L	.	16dd-XL	.	16aa-XL	.
16CCn`	.	16Fn`	.	16ddnJJ)	.	16dd-X	.
!	!	!	!	!LO:TX:b:t=)	!	!	!
!	!	!	!	!LO:TX:b:t=(	!	!	!
!	!	!	!	!LO:TX:a:t=(geschlag.)	!	!	!
16GGn`JJ	.	16Bn`J	.	16a-X`KL	pp	16ee-XJJ	.
=4	=4	=4	=4	=4	=4	=4	=4
!LO:TX:a:t=(gestrich.)	!	!	!	!	!	!LO:TX:t=P:problem:Cross-measure beaming not implemwnted yet	!
(16FnLL	.	16cn`L	.	16gn`L	.	16aanLL	.
16An	.	16Gn`	.	16e-X`	.	16bb-X	.
16E-XJ	.	16d-X`JJ	.	16an`JJ	.	16bbnJJ)	.
!	!	!LO:TX:a:t=(gestrich.)	!	!	!	!LO:TX:a:t=(geschlag.)	!LO:DY:ed=paren
16DnL	.	(16B-XLL	.	16r	.	16fn`LL	pp
16Gn	.	16G-X	.	16r	.	16en`JJ	.
!	!	!	!	!LO:TX:a:t=(gestrich.)	!	!	!
16D-XJ	.	16cnJ	.	(16g#XKL	.	16r	.
!	!	!	!	!	!	!LO:TX:a:t=(gestrich.)	!
16A-XL	.	16d-XL	.	16enL	.	(16ffnLL	.
16G-X	.	16A-X	.	16a#X	.	16dd-X	.
16CnJ	.	16dnJ	.	16bnJ	.	16ggnJ	.
=5	=5	=5	=5	=5	=5	=5	=5
16BBnL	.	16GnL	.	16g-XL	.	16aa-XL	.
16BB-X	.	16An	.	16ccn	.	16ee-X	.
16EnJJ)	.	16e-XJ	.	16fnJ	.	16aanJ	.
!LO:TX:a:t=(geschlag.)	!	!	!	!	!	!	!
16FFn`LL	.	16enL	.	16gnL	.	16ddnL	.
16AAn`	.	16fn	.	16cc#X	.	16een	.
16EE-X`JJ	.	16BnJJ)	.	16ddnJ	.	16bb-XJ	.
(16B-XLL	.	16r	.	16ee-XL	.	16bbnL	.
16En	.	16B-X`LL	.	16anJJ)	.	16cccn	.
16D#XJ	.	16G-X`J	.	16g#X`KL	.	16gg-XJJ)	.
!!linebreak:original
=6	=6	=6	=6	=6	=6	=6	=6
16G#XL	.	16cn`Jk	.	16en`L	.	16r	.
16Dn	.	(16GnLL	.	16b-X`JJ	.	16d-X`LL	.
16AnJ	.	16c#XJ	.	(16fnKL	.	16gn`JJ	.
16GnL	.	16dnL	.	16bnL	.	16r	.
16D-X	.	16An	.	16ccn	.	(16ddnLL	.
16CnJ	.	16e-XJ	.	16gnJ	.	16gg#XJ	.
16BBnL	.	16A-XL	.	16dd-XL	.	16aanL	.
16Fn	.	16B-X	.	16g-X	.	16een	.
16G-XJJ)	.	16enJ	.	16a-XJ	.	16bb-XJ	.
=7	=7	=7	=7	=7	=7	=7	=7
16BB-X`LL	.	16fnL	.	16ddnL	.	16ee-XL	.
16EEn`	.	16f#X	.	16ee-X	.	16ffn	.
16EE-X`JJ	.	16cnJ	.	16eenJ	.	16bbnJ	.
(16FnLL	.	16BnJk)	.	16b-XL	.	16cccnL	.
16En	.	(16dnLL	.	16anJJ)	.	16ddd-X	.
16AnJ	.	16e-XJ	.	16fn`KL	.	16ggnJ	.
16E-XL	.	16B-XL	.	16bn`L	.	16ff#XJk)	.
16B-X	.	16en	.	16ccn`	.	16r	.
16A-XJ	.	16AnJ	.	16gn`J	.	16r	.
=8	=8	=8	=8	=8	=8	=8	=8
16DnL	.	16BnL	.	16dd-X`Jk	.	(16aanLL	.
16C#X	.	16fn	.	(16ccnLL	.	16bb-X	.
16CnJ	.	16g-XJ	.	16dd-XJ	.	16ffnJ	.
16F#XL	.	16gnL	.	16a-XL	.	16bbnL	.
16Gn	.	16d-X	.	16ddn	.	16een	.
16BnJJ)	.	16cnJ	.	16gnJ	.	16ff#XJ	.
16FFn`LL	.	16A-XJk)	.	16anL	.	16cccnL	.
16EEn`	.	16dn`LL	.	16ee-X	.	16ddd-X	.
16AAn`J	.	16e-X`J	.	16eenJ	.	16dddnJJ	.
!!pagebreak:original
=9	=9	=9	=9	=9	=9	=9	=9
*	*	*	*	*^	*	*	*
!	!LO:DY:t=sempre %s	!	!LO:DY:t=sempre %s	!	!	!LO:DY:t=sempre %s	!	!LO:DY:t=sempre %s
16EE-X`L	pp	16B-X`Jk	pp	16ffnL	8.ryy	pp	16aa-XLL	pp
16BB-X`	.	(16enLL	.	16bn	.	.	16ggn	.
16AA-X`J	.	16BnJ	.	16a#XJ	.	.	16ee-XJJ)	.
16DDn`L	.	16fnL	.	16f#XJk)	16ryy	.	8.r	.
16CC#X`JJ	.	16B-X	.	16ryy	(<16ddnLL	.	.	.
(16FnKL	.	16cnJ	.	16ryy	16anJ	.	.	.
16B-XL	.	16f#XL	.	16ryy	16dd#XL	.	(16bbnLL	.
16En	.	16gn	.	16ryy	16g#X	.	16ff#X	.
16BnJ	.	16g#XJ	.	16ryy	16a#XJ	.	16cccnJ	.
=10	=10	=10	=10	=10	=10	=10	=10	=10
16AnL	.	16dnL	.	16ryy	16eenL	.	16ffnL	.
16E-X	.	16c#X	.	16ryy	16ffn	.	16ggn	.
16DnJ	.	16AnJ	.	16ryy	16ff#XJ	.	16ccc#XJ	.
16D-XL	.	16d#XJk)	.	16ryy	16ccnL	.	16dddnL	.
16Gn	.	(16cnLL	.	16ryy	16bn	.	16eee-X	.
16A-XJ	.	16f#XJ	.	(16b-XKL	16GJ	.	16aanJ	.
16cnL	.	16BnL	.	16eenL	16cc#XJk)	.	16gg#XL	.
16G-XJJ)	.	16c#X	.	16an	16ryy	.	16een	.
16r	.	16gnJ	.	16bnJ	16ryy	.	16bb-XJJ)	.
*	*	*	*	*v	*v	*	*	*
=11	=11	=11	=11	=11	=11	=11	=11
16BB-X`LL	.	16a-XL	.	16ffnL	.	(16ggnLL	.
16EEn`JJ	.	16an	.	16gg-X	.	16ddd-X	.
16r	.	16e-XJ	.	16ggnJ	.	16gg-XJ	.
(16BnLL	.	16dnL	.	16dd-XL	.	16aa-XL	.
16Fn	.	16B-X	.	16ccn	.	16dddn	.
16cnJ	.	16enJ	.	16a-XJ	.	16eee-XJ	.
16B-XL	.	16fnJk)	.	16ddnL	.	16eeenL	.
16En	.	16cn`LL	.	16ee-XJJ)	.	16bb-X	.
16E-XJ	.	16g-X`J	.	16b-X`KL	.	16aanJ	.
!!linebreak:original
=12	=12	=12	=12	=12	=12	=12	=12
16DnL	.	16c-X`L	.	16een`L	.	16ffnL	.
16G#X	.	16d-X`	.	16an`	.	16bbn	.
16AnJ	.	16gn`J	.	16bn`JJ	.	16cccnJJ)	.
16c#XL	.	16a-X`L	.	(16ffnLL	.	16r	.
16Gn	.	16an`	.	16b-X	.	(16dddnLL	.
16F#XJJ)	.	16e-X`J	.	16ccnJ	.	16ggnJ	.
16BBn`LL	.	16dn`L	.	16ff#XL	.	16aanL	.
16FFn`	.	16B-X`JJ	.	16ggn	.	16eee-X	.
16Cn`J	.	16r	.	16gg#XJ	.	16eeenJ	.
=13	=13	=13	=13	=13	=13	=13	=13
16BB-X`Jk	.	16r	.	16ddnL	.	16fffnL	.
(16F#XLL	.	(16gnLL	.	16cc#X	.	16bbn	.
16c#XJ	.	16cnJ	.	16anJ	.	16aa#XJ	.
16BnL	.	16dnL	.	16dd#XL	.	16ff#XL	.
16Fn	.	16a-X	.	16een	.	16cccn	.
16EnJ	.	16anJ	.	16bnJJ)	.	16ddd-XJ	.
16E-XL	.	16b-XL	.	16ffn`LL	.	16aa-XJk)	.
16An	.	16en	.	16b-X`	.	16ddn`LL	.
16B-XJ	.	16d#XJ	.	16ccn`J	.	16gn`J	.
=14	=14	=14	=14	=14	=14	=14	=14
16dnL	.	16BnL	.	16ff#X`L	.	16an`L	.
16A-X	.	16fn	.	16ggn`	.	16ee-X`	.
16GnJ	.	16g-XJ	.	16gg#X`J	.	16een`J	.
16cnJk)	.	16d-XJk)	.	16ddn`Jk	.	16ffn`Jk	.
(16dnLL	.	16r	.	(16bnLL	.	16r	.
16cnJ	.	16r	.	16cc#XJ	.	(16aa-XKL	.
16F#XL	.	16r	.	16ggnL	.	16bb-XL	.
16Fn	.	16gn`LL	.	16aa-X	.	16eeen	.
16EnJ	.	16c#X`JJ	.	16aanJJ	.	16fffnJJ	.
!!linebreak:original
=15	=15	=15	=15	=15	=15	=15	=15
16A#XL	.	16dn`LL	.	16ee-XLL	.	16fff#XLL	.
16Bn	.	16a-X`J	.	16ddn	.	16cccn	.
16d#XJ	.	(16d-XK	.	16b-XJ	.	16bbnJ	.
16AnL	.	16e-XL	.	16eenL	.	16ggnL	.
16G#X	.	16an	.	16ffn	.	16ccc#X	.
16c#XJ	.	16b-XJ	.	16ccnJ	.	16dddnJ	.
16GnJk)	.	16bnL	.	16ff#XJk)	.	16aanL	.
(16c#XLL	.	16fn	.	16r	.	16eee-XJJ)	.
16GnJ	.	16enJ	.	(16ddnKL	.	16r	.
=16	=16	=16	=16	=16	=16	=16	=16
16F#XL	.	16cnL	.	16aa-XL	.	16b-X`LL	.
16Fn	.	16f#X	.	16aan	.	16eeen`JJ	.
16BnJ	.	16gnJ	.	16bb-XJ	.	16r	.
16cnL	.	16dnL	.	16eenL	.	(16bbnLL	.
16en	.	16a-XJJ)	.	16dd#X	.	16fffn	.
16B-XJ	.	16r	.	16bnJ	.	16fff#XJ	.
16AnL	.	16e-X`LL	.	16ffnL	.	16gggnL	.
16dn	.	16an`JJ	.	16gg-X	.	16ddd-X	.
16A-XJ	.	16r	.	16dd-XJ	.	16cccnJ	.
=17	=17	=17	=17	=17	=17	=17	=17
16e-XJk)	.	(16eLL	.	16ggnL	.	16aa-XL	.
16C#X`LL	.	16b-X	.	16ccnJJ)	.	16dddn	.
16GGn`J	.	16bnJ	.	16ddn`KL	.	16eee-XJ	.
16GG-X`L	.	16ccnL	.	16aa-X`L	.	16bb-XL	.
16FFn`	.	16g-X	.	16aan`	.	16eeen	.
16BBn`J	.	16fJ	.	16bb-X`J	.	16aanJJ)	.
16Cn`L	.	16d-XL	.	16een`L	.	16r	.
16En`	.	16gn	.	16dd#X`	.	16Bn`LL	.
16BB-X`JJ	.	16a-XJJ)	.	16bn`JJ	.	16fn`JJ	.
=	=	=	=	=	=	=	=
*-	*-	*-	*-	*-	*-	*-	*-
!!!system-decoration: [(s1,s2,s3,s4)]

!!!RDF**kern: > = above
!!!RDF**kern: < = below
